Suru++-Ubuntu/places/symbolic/insync-folder-linux-symbolic.svg

<svg width="16" height="16" version="1.1" xmlns="http://www.w3.org/2000/svg">
 <g transform="translate(-5.5375671 -.88122892)">
  <path d="m15.315851 3.990133c-3.233948-7e-7 -5.8696381 2.6356856-5.8696346 5.8696348v0.6516452h1.3039806v-0.6516452c-4e-6 -2.529027 2.036631-4.5656551 4.565654-4.5656547h0.652336v-1.3039801z" style="fill:#808080"/>
  <path d="m15.315851 6.598783c-1.793202-7e-7 -3.260985 1.4677805-3.260982 3.2609848v0.6516452h1.303981v-0.6516452c-4e-6 -1.0882825 0.86872-1.9570051 1.957001-1.9570047h0.652336v-1.3039801z" style="fill:#808080"/>
  <path d="m15.315851 1.381483c-4.674686-1e-6 -8.4782839 3.8035968-8.4782839 8.4782848v0.6516452h1.3039804v-0.6516452c0-3.9697662 3.2045385-7.1743054 7.1743035-7.1743047h0.652336v-1.3039801z" style="fill:#808080"/>
  <rect x="14.66" y="12.47" width="1.957" height="3.913" style="fill:#808080"/>
  <circle cx="15.642" cy="10.186" r=".978" style="fill:#808080"/>
 </g>
</svg>

<svg xmlns="http://www.w3.org/2000/svg" width="16" height="16" version="1.1">
 <g transform="translate(-5.5375671,-0.88122892)">
  <path d="m 15.315851,3.990133 c -3.233948,-7e-7 -5.8696381,2.6356856 -5.8696346,5.8696348 V 10.511413 H 10.750197 V 9.8597678 c -4e-6,-2.529027 2.036631,-4.5656551 4.565654,-4.5656547 h 0.652336 V 3.990133 Z" style="fill:#808080"/>
  <path d="m 15.315851,6.598783 c -1.793202,-7e-7 -3.260985,1.4677805 -3.260982,3.2609848 V 10.511413 H 13.35885 V 9.8597678 c -4e-6,-1.0882825 0.86872,-1.9570051 1.957001,-1.9570047 h 0.652336 V 6.598783 Z" style="fill:#808080"/>
  <path d="M 15.315851,1.381483 C 10.641165,1.381482 6.8375671,5.1850798 6.8375671,9.8597678 V 10.511413 H 8.1415475 V 9.8597678 c 0,-3.9697662 3.2045385,-7.1743054 7.1743035,-7.1743047 h 0.652336 V 1.381483 Z" style="fill:#808080"/>
  <rect style="fill:#808080" width="1.957" height="3.913" x="14.66" y="12.47"/>
  <circle style="fill:#808080" cx="15.642" cy="10.186" r=".978"/>
 </g>
</svg>
